localPackages/DesignSystem/Sources/DesignSystem/Resources/Assets.xcassets/IconSet/ic-bug.imageset/ic-bug.svg

<svg width="24" height="24" viewBox="0 0 24 24" fill="none" xmlns="http://www.w3.org/2000/svg">
<g id="ic-bug">
<path id="Icon" fill-rule="evenodd" clip-rule="evenodd" d="M15.664 4.78477C15.905 5.12448 16.1006 5.49867 16.2418 5.8981H17.25H18.75V7.3981V8.92126C19.9883 8.92126 21 7.90996 21 6.65273C21 6.23852 21.3358 5.90273 21.75 5.90273C22.1642 5.90273 22.5 6.23852 22.5 6.65273C22.5 8.72967 20.8254 10.4213 18.75 10.4213V12.6944H21.75C22.1642 12.6944 22.5 13.0302 22.5 13.4444C22.5 13.8586 22.1642 14.1944 21.75 14.1944H18.75V15.75C18.75 16.2557 18.6944 16.7483 18.589 17.2222H18.75C20.8254 17.2222 22.5 18.9138 22.5 20.9907C22.5 21.405 22.1642 21.7407 21.75 21.7407C21.3358 21.7407 21 21.405 21 20.9907C21 19.7335 19.9883 18.7222 18.75 18.7222H18.0621C16.9629 20.9598 14.6613 22.5 12 22.5C9.33868 22.5 7.03708 20.9598 5.93791 18.7222H5.25C4.01171 18.7222 3 19.7335 3 20.9907C3 21.405 2.66421 21.7407 2.25 21.7407C1.83579 21.7407 1.5 21.405 1.5 20.9907C1.5 18.9138 3.17458 17.2222 5.25 17.2222H5.41102C5.3056 16.7483 5.25 16.2557 5.25 15.75V14.1944H2.25C1.83579 14.1944 1.5 13.8586 1.5 13.4444C1.5 13.0302 1.83579 12.6944 2.25 12.6944H5.25V10.4213C3.17458 10.4213 1.5 8.72967 1.5 6.65273C1.5 6.23852 1.83579 5.90273 2.25 5.90273C2.66421 5.90273 3 6.23852 3 6.65273C3 7.90996 4.01171 8.92126 5.25 8.92126V7.3981V5.8981H6.75H7.75819C7.89943 5.49865 8.09503 5.12444 8.33606 4.78471L6.35021 2.7866C6.05822 2.49281 6.05822 2.01647 6.35021 1.72268C6.6422 1.42889 7.11561 1.42889 7.4076 1.72268L9.39318 3.72052C10.1287 3.19175 11.0284 2.87957 12 2.87957C12.9716 2.87957 13.8714 3.19176 14.6069 3.72056L16.5927 1.72245C16.8847 1.42866 17.3581 1.42866 17.6501 1.72245C17.9421 2.01624 17.9421 2.49258 17.6501 2.78637L15.664 4.78477ZM9 7.40736H7.5L7.50001 7.3981H6.75V15.75C6.75 18.6495 9.1005 21 12 21C14.8995 21 17.25 18.6495 17.25 15.75V7.3981H16.5L16.5 7.40736H15L9 7.40736ZM14.5979 5.8981C14.0769 4.99136 13.1037 4.37957 12 4.37957C10.8963 4.37957 9.9231 4.99136 9.40215 5.8981H14.5979Z" fill="#0F0F0F"/>
</g>
</svg>

<svg xmlns="http://www.w3.org/2000/svg" width="24" height="24" viewBox="0 0 24 24">
  <g class="ic-bug">
    <path fill-rule="evenodd" d="M15.664 4.785c.241.34.437.714.578 1.113h2.508V8.92A2.26 2.26 0 0 0 21 6.653a.75.75 0 0 1 1.5 0c0 2.077-1.675 3.768-3.75 3.768v2.273h3a.75.75 0 0 1 0 1.5h-3v1.556c0 .506-.056.998-.161 1.472h.161c2.075 0 3.75 1.692 3.75 3.769a.75.75 0 0 1-1.5 0 2.26 2.26 0 0 0-2.25-2.269h-.688A6.75 6.75 0 0 1 12 22.5a6.75 6.75 0 0 1-6.062-3.778H5.25A2.26 2.26 0 0 0 3 20.991a.75.75 0 0 1-1.5 0c0-2.077 1.675-3.769 3.75-3.769h.161a6.774 6.774 0 0 1-.161-1.472v-1.556h-3a.75.75 0 0 1 0-1.5h3v-2.273c-2.075 0-3.75-1.691-3.75-3.768a.75.75 0 1 1 1.5 0A2.26 2.26 0 0 0 5.25 8.92V5.898h2.508c.141-.4.337-.774.578-1.113L6.35 2.786a.756.756 0 0 1 0-1.063.744.744 0 0 1 1.058 0L9.393 3.72A4.45 4.45 0 0 1 12 2.88a4.45 4.45 0 0 1 2.607.84l1.986-1.998a.744.744 0 0 1 1.057 0 .756.756 0 0 1 0 1.064l-1.986 1.999ZM9 7.407H7.5v-.01h-.75v8.353a5.25 5.25 0 0 0 10.5 0V7.398h-.75v.01H9Zm5.598-1.51A3.004 3.004 0 0 0 12 4.38a3.004 3.004 0 0 0-2.598 1.519h5.196Z" class="Icon"/>
  </g>
</svg>
